assets/icons/banana-bamboo_icon.svg

<svg width="33" height="37" viewBox="0 0 33 37" fill="none" xmlns="http://www.w3.org/2000/svg">
<path fill-rule="evenodd" clip-rule="evenodd" d="M24.3979 31.6248C23.9372 29.9806 22.5636 28.0496 21.4936 25.9642C22.4107 27.7517 23.3279 29.5393 24.3979 31.6248ZM26.982 31.4368C25.4555 29.2079 24.5363 26.67 23.617 24.132C22.8548 23.3928 22.2475 23.7019 21.6402 24.0109C20.5785 24.927 19.5147 25.0927 20.7334 25.9753C22.2599 28.2042 23.3299 30.2897 24.0963 32.5297C24.3999 32.3751 25.0072 32.0661 25.3109 31.9115C25.9182 31.6025 26.069 31.15 26.982 31.4368ZM20.4236 23.8787C19.9629 22.2345 18.5893 20.3036 17.5193 18.2181C18.4364 20.0056 19.3536 21.7932 20.4236 23.8787ZM16.2964 15.8347C15.9886 14.4884 14.4621 12.2595 13.545 10.472C14.4621 12.2595 15.2264 13.7492 16.4493 16.1326C16.4493 16.1326 16.4493 16.1326 16.2964 15.8347ZM18.8805 15.6467C17.5069 13.7158 16.5877 11.1778 15.5156 8.34194C14.9062 7.90062 14.2989 8.20968 13.6916 8.51875C12.6299 9.43481 11.5661 9.60048 12.7848 10.4831C14.1585 12.4141 15.3813 14.7975 16.1477 17.0375C16.4513 16.883 17.0586 16.5739 17.3623 16.4194C17.8167 15.8124 18.1204 15.6578 18.8805 15.6467ZM12.3221 8.08857C12.0144 6.74233 10.4878 4.51346 9.5707 2.7259C10.4878 4.51346 11.2521 6.00309 12.475 8.3865L12.3221 8.08857ZM14.9062 7.90062C13.5326 5.96967 12.6134 3.43172 11.5413 0.595853C10.9319 0.154533 10.3247 0.463599 9.71736 0.772666C8.65562 1.68872 7.43896 1.55647 8.81055 2.73704C10.1842 4.66799 11.4071 7.0514 12.1734 9.29142C12.4771 9.13688 13.0844 8.82782 13.2351 8.37536C13.8424 8.06629 14.1461 7.91176 14.9062 7.90062ZM14.3217 16.4639C13.105 16.3317 12.192 16.0449 10.9754 15.9126C12.192 16.0449 12.9522 16.0338 14.3217 16.4639C12.4957 15.8904 11.1261 15.4602 9.45298 15.1845C10.8225 15.6147 12.0392 15.747 13.8652 16.3205C11.8863 15.449 10.2131 15.1734 8.69076 14.4453C10.0603 14.8755 11.4298 15.3056 13.4087 16.1771C11.7334 15.1511 9.90742 14.5775 8.08139 14.004C9.90742 14.5775 11.8863 15.449 14.3217 16.4639C14.7782 16.6073 14.7782 16.6073 14.3217 16.4639ZM13.7144 16.773C13.7144 16.773 13.4107 16.9275 13.2579 16.6296C10.9774 16.663 9.00061 16.5419 7.17665 16.7187C8.84982 16.9944 10.6738 16.8176 12.4977 16.6407C10.6738 16.8176 9.15346 16.8398 7.78601 17.16C9.30632 17.1378 11.1303 16.9609 12.9542 16.7841C11.4339 16.8064 10.0665 17.1266 8.69903 17.4468C10.523 17.27 11.8904 16.9498 13.4107 16.9275C12.3469 17.0932 11.2831 17.2589 10.2193 17.4245C11.2831 17.2589 12.3469 17.0932 13.4107 16.9275C13.7144 16.773 13.7144 16.773 13.7144 16.773ZM14.6315 18.5606C14.0242 18.8696 13.5698 19.4766 12.6588 19.9402C13.2661 19.6311 13.7206 19.0242 14.6315 18.5606C13.7206 19.0242 12.6588 19.9402 11.7479 20.4038C12.6588 19.9402 13.4169 19.1787 14.3279 18.7151C13.1133 19.3332 11.8987 19.9514 10.837 20.8674C11.595 20.1059 12.8096 19.4878 14.0242 18.8696C12.8096 19.4878 11.595 20.1059 10.3805 20.724C11.595 20.1059 12.9604 19.0353 14.4787 18.2626C14.7823 18.1081 14.9352 18.406 14.6315 18.5606ZM14.7844 18.8585C14.4807 19.013 14.4807 19.013 14.4807 19.013C13.2682 20.3815 12.3593 21.5955 11.7541 22.655C12.3593 21.5955 13.2682 20.3815 14.0263 19.62C13.4211 20.6795 12.663 21.441 12.0578 22.5004C12.663 21.441 13.5719 20.227 14.1771 19.1675C13.5719 20.227 13.2703 21.1319 12.8158 21.7389C13.2703 21.1319 13.8755 20.0725 14.4807 19.013C14.1792 19.9179 13.7247 20.5249 13.5739 20.9774C14.0284 20.3704 14.0263 19.62 14.4807 19.013L14.7844 18.8585ZM15.5425 18.097C15.8461 17.9424 15.8461 17.9424 16.1498 17.7879C16.3026 18.0858 16.3026 18.0858 16.7591 18.2292C18.2856 20.4581 19.3556 22.5436 20.122 24.7836C20.4256 24.6291 21.0329 24.32 21.3366 24.1655C21.791 23.5585 22.0947 23.4039 22.8548 23.3928C21.4812 21.4618 20.562 18.9239 19.4899 16.088C18.8805 15.6467 18.2732 15.9558 17.6659 16.2648C16.9079 17.0264 16.1477 17.0375 15.9969 17.49C15.8441 17.192 15.3875 17.0486 15.2347 16.7507C15.0818 16.4528 14.6253 16.3094 13.8631 15.5702C11.8842 14.6987 8.68869 13.6949 7.01553 13.4193C7.4741 14.313 9.90948 15.3279 11.8884 16.1994C9.91155 16.0783 7.32744 16.2663 5.8092 17.0389C7.33157 17.767 12.9563 17.5345 14.6274 17.0598C14.6274 17.0598 14.931 16.9052 15.0839 17.2032C15.5404 17.3466 15.9969 17.49 16.1498 17.7879C15.8461 17.9424 15.5425 18.097 15.086 17.9536C15.086 17.9536 14.7823 18.1081 14.175 18.4172C12.5039 18.8919 10.5312 20.2716 9.46951 21.1876C10.3825 21.4744 12.2044 20.5472 13.5698 19.4766C12.6609 20.6906 11.6012 22.357 10.996 23.4165C12.3635 23.0963 14.7865 19.6089 14.9352 18.406C15.2388 18.2515 15.2388 18.2515 15.5425 18.097Z" fill="#468E0D"/>
<path d="M28.1743 10.2391L28.1782 10.2251L28.178 10.2106L28.0821 4.15258L28.0819 4.14258L28.0798 4.13282C28.0313 3.91061 28.1382 3.69604 28.374 3.5221C28.61 3.34807 28.9617 3.22753 29.3541 3.20456C30.1288 3.15921 31.0324 3.49436 31.4726 4.49825C31.2842 5.37437 31.1772 6.23827 31.0707 7.09719L31.0705 7.09934C30.9625 7.97054 30.8552 8.83663 30.6646 9.71396L30.6554 9.75618L30.6798 9.79179C33.1412 13.3771 33.4114 17.285 32.1986 20.8178C30.9849 24.3533 28.2846 27.5151 24.8031 29.5944C21.3223 31.6733 17.0657 32.6672 12.7422 31.8738C8.42473 31.0815 4.03183 28.5054 0.272911 23.43C0.133783 22.8475 0.0778791 22.3617 0.107862 21.9745C0.138149 21.5834 0.255102 21.3025 0.452161 21.1196C0.648968 20.937 0.941107 20.838 1.35208 20.843C1.76321 20.848 2.28406 20.9573 2.92488 21.1815C13.4167 25.5384 25.0393 21.4704 28.1743 10.2391Z" fill="#FFEE2E" stroke="#468E0D" stroke-width="0.2"/>
</svg>

<svg class="banans" xmlns="http://www.w3.org/2000/svg" fill="none"  viewBox="0 0 33 37"><path fill="#468E0D" fill-rule="evenodd" d="M24.398 31.625c-.46-1.644-1.834-3.575-2.904-5.66l2.904 5.66zm2.584-.188c-1.526-2.23-2.446-4.767-3.365-7.305-.762-.74-1.37-.43-1.977-.121-1.062.916-2.125 1.082-.907 1.964 1.527 2.23 2.597 4.315 3.363 6.555l1.215-.619c.607-.309.758-.761 1.671-.474zm-6.558-7.558c-.461-1.645-1.835-3.575-2.905-5.66l2.905 5.66zm-4.128-8.044c-.307-1.347-1.834-3.576-2.751-5.363l2.904 5.66-.153-.297zm2.585-.188c-1.374-1.931-2.293-4.47-3.365-7.305-.61-.441-1.217-.132-1.824.177-1.062.916-2.126 1.081-.907 1.964a26.676 26.676 0 0 1 3.363 6.555l1.214-.619c.455-.607.758-.761 1.519-.772zm-6.559-7.558c-.308-1.347-1.834-3.576-2.751-5.363l2.904 5.66-.153-.297zm2.584-.188C13.533 5.97 12.613 3.43 11.541.596c-.61-.441-1.216-.132-1.824.177-1.061.916-2.278.783-.906 1.964a26.673 26.673 0 0 1 3.362 6.554c.304-.154.911-.463 1.062-.916.607-.309.911-.463 1.671-.474zm-.584 8.563c-1.217-.132-2.13-.42-3.347-.551 1.217.132 1.977.12 3.347.55-1.826-.573-3.196-1.003-4.869-1.279 1.37.43 2.586.563 4.412 1.136-1.979-.871-3.652-1.147-5.174-1.875 1.37.43 2.739.86 4.718 1.732-1.676-1.026-3.502-1.6-5.328-2.173 1.826.574 3.805 1.445 6.24 2.46.457.143.457.143 0 0zm-.608.309s-.303.154-.456-.143c-2.28.033-4.257-.088-6.081.089 1.673.275 3.497.099 5.32-.078-1.823.177-3.344.199-4.711.519 1.52-.022 3.344-.2 5.168-.376-1.52.022-2.888.343-4.255.663 1.824-.177 3.191-.497 4.712-.52l-3.192.497c1.064-.165 2.128-.33 3.192-.497l.303-.154zm.918 1.788c-.608.309-1.062.916-1.973 1.38.607-.31 1.062-.917 1.973-1.38-.911.463-1.973 1.38-2.884 1.843.91-.464 1.669-1.225 2.58-1.689-1.215.618-2.43 1.236-3.491 2.152.758-.761 1.973-1.38 3.187-1.997l-3.643 1.854c1.214-.618 2.58-1.689 4.098-2.461.303-.155.456.143.153.298zm.152.297l-.303.155c-1.213 1.368-2.122 2.582-2.727 3.642.605-1.06 1.514-2.274 2.272-3.035-.605 1.06-1.363 1.821-1.968 2.88.605-1.059 1.514-2.273 2.12-3.332-.606 1.059-.908 1.964-1.362 2.57.454-.606 1.06-1.665 1.665-2.725-.302.905-.756 1.512-.907 1.964.454-.607.452-1.357.907-1.964l.303-.155zm.758-.761l.608-.31c.153.299.153.299.61.442 1.526 2.23 2.596 4.315 3.362 6.555.304-.155.91-.464 1.215-.618.454-.608.758-.762 1.518-.773-1.374-1.931-2.293-4.47-3.365-7.305-.61-.441-1.217-.132-1.824.177-.758.761-1.518.773-1.67 1.225-.152-.298-.609-.441-.761-.74-.153-.297-.61-.44-1.372-1.18-1.979-.871-5.174-1.875-6.847-2.15.458.893 2.893 1.908 4.872 2.78-1.976-.122-4.56.066-6.079.839 1.523.728 7.147.495 8.818.02 0 0 .304-.154.457.144.456.144.913.287 1.066.585-.304.154-.607.309-1.064.166l-.911.463c-1.671.475-3.644 1.855-4.705 2.77.912.287 2.734-.64 4.1-1.71-.91 1.214-1.969 2.88-2.574 3.94 1.367-.32 3.79-3.808 3.94-5.011l.607-.309z" clip-rule="evenodd"/><path fill="#FFEE2E" stroke="#468E0D" stroke-width=".2" d="M28.174 10.24l.004-.015v-.014l-.096-6.058v-.01l-.002-.01c-.049-.222.058-.437.294-.61.236-.175.588-.295.98-.318.775-.046 1.678.29 2.119 1.293-.189.876-.296 1.74-.402 2.6v.001c-.109.872-.216 1.738-.406 2.615l-.01.042.025.036c2.461 3.585 2.731 7.493 1.519 11.026-1.214 3.535-3.914 6.697-7.396 8.776-3.48 2.08-7.737 3.073-12.06 2.28-4.318-.793-8.711-3.369-12.47-8.444-.14-.582-.195-1.068-.165-1.456.03-.39.147-.672.344-.854.197-.183.49-.282.9-.277.411.005.932.114 1.573.338 10.492 4.357 22.114.29 25.25-10.942z"/></svg>
